storage/app/icons/phosphoricons/thin/layout-thin.svg

<svg xmlns="http://www.w3.org/2000/svg" fill="currentColor" viewBox="0 0 256 256"><path d="M216 44H40a12 12 0 0 0-12 12v144a12 12 0 0 0 12 12h176a12 12 0 0 0 12-12V56a12 12 0 0 0-12-12M40 52h176a4 4 0 0 1 4 4v44H36V56a4 4 0 0 1 4-4m-4 148v-92h64v96H40a4 4 0 0 1-4-4m180 4H108v-96h112v92a4 4 0 0 1-4 4"/></svg>

<svg xmlns="http://www.w3.org/2000/svg" viewBox="0 0 256 256" fill="currentColor"><path d="M216,44H40A12,12,0,0,0,28,56V200a12,12,0,0,0,12,12H216a12,12,0,0,0,12-12V56A12,12,0,0,0,216,44ZM40,52H216a4,4,0,0,1,4,4v44H36V56A4,4,0,0,1,40,52ZM36,200V108h64v96H40A4,4,0,0,1,36,200Zm180,4H108V108H220v92A4,4,0,0,1,216,204Z"/></svg>
